icon-themes/breeze_svg/cmd/lc_addwatch.svg

<svg viewBox="0 0 24 24" xmlns="http://www.w3.org/2000/svg"><path d="m11.998047 7.5a10 9.9999752 0 0 0 -8.685547 5.070312c.1851088.291428.4456268.526926.7519531.689454a9 8.9999781 0 0 1 7.9335939-4.759766 4 4 0 0 0 -4.0000001 4 4 4 0 0 0 4.0000001 4 4 4 0 0 0 4-4 4 4 0 0 0 -3.65625-3.9824219 9 8.9999781 0 0 1 7.587891 4.7441409c.309422-.163642.571983-.402424.757812-.697266a10 9.9999752 0 0 0 -8.689453-5.064453zm0 2a3 3 0 0 1 3 3 3 3 0 0 1 -3 3 3 3 0 0 1 -3.0000001-3 3 3 0 0 1 3.0000001-3zm0 1c-1.108 0-2.0000001.892-2.0000001 2s.8920001 2 2.0000001 2 2-.892 2-2c0-.20481-.039023-.398205-.095703-.583984-.157885.343717-.49998.583984-.904297.583984-.554 0-1-.446-1-1 0-.404317.240267-.746415.583984-.904297-.185779-.056686-.379174-.095703-.583984-.095703z" fill="#4d4d4d"/></svg>

<svg xmlns="http://www.w3.org/2000/svg" viewBox="0 0 24 24">
 <path 
     style="fill:#4d4d4d" 
     d="M 11.998047 7.5 A 10 9.9999752 0 0 0 3.3125 12.570312 C 3.4976088 12.86174 3.7581268 13.097238 4.0644531 13.259766 A 9 8.9999781 0 0 1 11.998047 8.5 A 4 4 0 0 0 7.9980469 12.5 A 4 4 0 0 0 11.998047 16.5 A 4 4 0 0 0 15.998047 12.5 A 4 4 0 0 0 12.341797 8.5175781 A 9 8.9999781 0 0 1 19.929688 13.261719 C 20.23911 13.098077 20.501671 12.859295 20.6875 12.564453 A 10 9.9999752 0 0 0 11.998047 7.5 z M 11.998047 9.5 A 3 3 0 0 1 14.998047 12.5 A 3 3 0 0 1 11.998047 15.5 A 3 3 0 0 1 8.9980469 12.5 A 3 3 0 0 1 11.998047 9.5 z M 11.998047 10.5 C 10.890047 10.5 9.9980469 11.392 9.9980469 12.5 C 9.9980469 13.608 10.890047 14.5 11.998047 14.5 C 13.106047 14.5 13.998047 13.608 13.998047 12.5 C 13.998047 12.29519 13.959024 12.101795 13.902344 11.916016 C 13.744459 12.259733 13.402364 12.5 12.998047 12.5 C 12.444047 12.5 11.998047 12.054 11.998047 11.5 C 11.998047 11.095683 12.238314 10.753585 12.582031 10.595703 C 12.396252 10.539017 12.202857 10.5 11.998047 10.5 z "
     />
 </svg>
